svgs/pocket_casts.svg

<?xml version="1.0" encoding="UTF-8" standalone="no"?>
<svg
   width="24"
   height="24"
   viewBox="0 0 24 24"
   fill="none"
   version="1.1"
   id="svg6"
   sodipodi:docname="pocket_casts.svg"
   inkscape:version="1.1.1 (3bf5ae0d25, 2021-09-20)"
   xmlns:inkscape="http://www.inkscape.org/namespaces/inkscape"
   xmlns:sodipodi="http://sodipodi.sourceforge.net/DTD/sodipodi-0.dtd"
   xmlns="http://www.w3.org/2000/svg"
   xmlns:svg="http://www.w3.org/2000/svg">
  <defs
     id="defs10" />
  <sodipodi:namedview
     id="namedview8"
     pagecolor="#ffffff"
     bordercolor="#666666"
     borderopacity="1.0"
     inkscape:pageshadow="2"
     inkscape:pageopacity="0.0"
     inkscape:pagecheckerboard="0"
     showgrid="true"
     inkscape:zoom="32.375"
     inkscape:cx="9.8223938"
     inkscape:cy="12.061776"
     inkscape:window-width="2560"
     inkscape:window-height="1015"
     inkscape:window-x="0"
     inkscape:window-y="32"
     inkscape:window-maximized="1"
     inkscape:current-layer="svg6">
    <inkscape:grid
       type="xygrid"
       id="grid1021"
       empspacing="1" />
  </sodipodi:namedview>
  <path
     id="path1165"
     style="color:#000000;fill:#000000;stroke-linejoin:round;-inkscape-stroke:none"
     d="M 12 2 C 6.4890026 2 2 6.4890026 2 12 C 2 17.510997 6.4890026 22 12 22 L 12 20 C 7.5698818 20 4 16.430118 4 12 C 4 7.5698818 7.5698818 4 12 4 C 16.430118 4 20 7.5698818 20 12 L 22 12 C 22 6.4890026 17.510997 2 12 2 z " />
  <path
     id="path1359"
     style="color:#000000;fill:#000000;stroke-linejoin:round;-inkscape-stroke:none"
     d="m 12,6 c -3.3018606,0 -6,2.698139 -6,6 0,3.301861 2.6981394,6 6,6 V 16 C 9.7790186,16 8,14.220981 8,12 8,9.779019 9.7790186,8 12,8 c 2.220981,0 4,1.779019 4,4 h 2 C 18,8.698139 15.301861,6 12,6 Z" />
</svg>

<svg xmlns="http://www.w3.org/2000/svg" width="24" height="24" fill="none" viewBox="0 0 24 24"><path d="M12 2C6.489 2 2 6.489 2 12s4.489 10 10 10v-2c-4.43 0-8-3.57-8-8s3.57-8 8-8 8 3.57 8 8h2c0-5.511-4.489-10-10-10" style="color:#000;fill:#000;stroke-linejoin:round;-inkscape-stroke:none"/><path d="M12 6c-3.302 0-6 2.698-6 6s2.698 6 6 6v-2c-2.221 0-4-1.779-4-4s1.779-4 4-4 4 1.779 4 4h2c0-3.302-2.698-6-6-6" style="color:#000;fill:#000;stroke-linejoin:round;-inkscape-stroke:none"/></svg>
